packages/icons/svg/24/ChangeCharactor.svg

<svg width="24" height="24" viewBox="0 0 24 24" fill="none" xmlns="http://www.w3.org/2000/svg">
<path fill-rule="evenodd" clip-rule="evenodd" d="M12 5C12 3.34315 13.3431 2 15 2H19C20.6569 2 22 3.34315 22 5V9C22 10.6569 20.6569 12 19 12H15C13.3431 12 12 10.6569 12 9V5ZM16 6.375C16 6.99632 15.4963 7.5 14.875 7.5C14.2537 7.5 13.75 6.99632 13.75 6.375C13.75 5.75368 14.2537 5.25 14.875 5.25C15.4963 5.25 16 5.75368 16 6.375ZM19.125 7.5C19.7463 7.5 20.25 6.99632 20.25 6.375C20.25 5.75368 19.7463 5.25 19.125 5.25C18.5037 5.25 18 5.75368 18 6.375C18 6.99632 18.5037 7.5 19.125 7.5ZM14.3523 8.59744C14.6445 8.30383 15.1193 8.30266 15.4129 8.59483C15.8206 9.0005 16.3804 9.24991 17 9.24991C17.6195 9.24991 18.1794 9.0005 18.587 8.59483C18.8806 8.30266 19.3555 8.30383 19.6477 8.59744C19.9399 8.89105 19.9387 9.36592 19.6451 9.6581C18.9678 10.3321 18.032 10.7499 17 10.7499C15.968 10.7499 15.0322 10.3321 14.3549 9.6581C14.0613 9.36592 14.0601 8.89105 14.3523 8.59744Z" fill="#858585"/>
<path fill-rule="evenodd" clip-rule="evenodd" d="M2 15C2 13.3431 3.34315 12 5 12H9C10.6569 12 12 13.3431 12 15V19C12 20.6569 10.6569 22 9 22H5C3.34315 22 2 20.6569 2 19V15ZM6 16.375C6 16.9963 5.49632 17.5 4.875 17.5C4.25368 17.5 3.75 16.9963 3.75 16.375C3.75 15.7537 4.25368 15.25 4.875 15.25C5.49632 15.25 6 15.7537 6 16.375ZM9.125 17.5C9.74632 17.5 10.25 16.9963 10.25 16.375C10.25 15.7537 9.74632 15.25 9.125 15.25C8.50368 15.25 8 15.7537 8 16.375C8 16.9963 8.50368 17.5 9.125 17.5ZM4.35228 18.5974C4.64445 18.3038 5.11933 18.3027 5.41294 18.5948C5.8206 19.0005 6.38044 19.2499 6.99998 19.2499C7.61952 19.2499 8.17937 19.0005 8.58703 18.5948C8.88064 18.3027 9.35551 18.3038 9.64769 18.5974C9.93986 18.8911 9.93869 19.3659 9.64508 19.6581C8.9678 20.3321 8.03196 20.7499 6.99998 20.7499C5.968 20.7499 5.03217 20.3321 4.35489 19.6581C4.06127 19.3659 4.06011 18.8911 4.35228 18.5974Z" fill="#858585"/>
<path d="M5 4C5 3.44772 5.44772 3 6 3H9C9.55228 3 10 3.44772 10 4C10 4.55228 9.55228 5 9 5H7V7H7.5C7.90446 7 8.2691 7.24364 8.42388 7.61732C8.57866 7.99099 8.4931 8.42111 8.20711 8.70711L6.70711 10.2071C6.31658 10.5976 5.68342 10.5976 5.29289 10.2071L3.79289 8.70711C3.5069 8.42111 3.42134 7.99099 3.57612 7.61732C3.7309 7.24364 4.09554 7 4.5 7H5V4Z" fill="#858585"/>
<path d="M18 21C18.2652 21 18.5196 20.8946 18.7071 20.7071C18.8946 20.5196 19 20.2652 19 20V17H19.5C19.9045 17 20.2691 16.7564 20.4239 16.3827C20.5787 16.009 20.4931 15.5789 20.2071 15.2929L18.7071 13.7929C18.3166 13.4024 17.6834 13.4024 17.2929 13.7929L15.7929 15.2929C15.5069 15.5789 15.4213 16.009 15.5761 16.3827C15.7309 16.7564 16.0955 17 16.5 17H17V19H15C14.4477 19 14 19.4477 14 20C14 20.5523 14.4477 21 15 21H18Z" fill="#858585"/>
<path fill-rule="evenodd" clip-rule="evenodd" d="M12 5C12 3.34315 13.3431 2 15 2H19C20.6569 2 22 3.34315 22 5V9C22 10.6569 20.6569 12 19 12H15C13.3431 12 12 10.6569 12 9V5ZM16 6.375C16 6.99632 15.4963 7.5 14.875 7.5C14.2537 7.5 13.75 6.99632 13.75 6.375C13.75 5.75368 14.2537 5.25 14.875 5.25C15.4963 5.25 16 5.75368 16 6.375ZM19.125 7.5C19.7463 7.5 20.25 6.99632 20.25 6.375C20.25 5.75368 19.7463 5.25 19.125 5.25C18.5037 5.25 18 5.75368 18 6.375C18 6.99632 18.5037 7.5 19.125 7.5ZM14.3523 8.59744C14.6445 8.30383 15.1193 8.30266 15.4129 8.59483C15.8206 9.0005 16.3804 9.24991 17 9.24991C17.6195 9.24991 18.1794 9.0005 18.587 8.59483C18.8806 8.30266 19.3555 8.30383 19.6477 8.59744C19.9399 8.89105 19.9387 9.36592 19.6451 9.6581C18.9678 10.3321 18.032 10.7499 17 10.7499C15.968 10.7499 15.0322 10.3321 14.3549 9.6581C14.0613 9.36592 14.0601 8.89105 14.3523 8.59744Z" stroke="white"/>
<path fill-rule="evenodd" clip-rule="evenodd" d="M2 15C2 13.3431 3.34315 12 5 12H9C10.6569 12 12 13.3431 12 15V19C12 20.6569 10.6569 22 9 22H5C3.34315 22 2 20.6569 2 19V15ZM6 16.375C6 16.9963 5.49632 17.5 4.875 17.5C4.25368 17.5 3.75 16.9963 3.75 16.375C3.75 15.7537 4.25368 15.25 4.875 15.25C5.49632 15.25 6 15.7537 6 16.375ZM9.125 17.5C9.74632 17.5 10.25 16.9963 10.25 16.375C10.25 15.7537 9.74632 15.25 9.125 15.25C8.50368 15.25 8 15.7537 8 16.375C8 16.9963 8.50368 17.5 9.125 17.5ZM4.35228 18.5974C4.64445 18.3038 5.11933 18.3027 5.41294 18.5948C5.8206 19.0005 6.38044 19.2499 6.99998 19.2499C7.61952 19.2499 8.17937 19.0005 8.58703 18.5948C8.88064 18.3027 9.35551 18.3038 9.64769 18.5974C9.93986 18.8911 9.93869 19.3659 9.64508 19.6581C8.9678 20.3321 8.03196 20.7499 6.99998 20.7499C5.968 20.7499 5.03217 20.3321 4.35489 19.6581C4.06127 19.3659 4.06011 18.8911 4.35228 18.5974Z" stroke="white"/>
<path d="M5 4C5 3.44772 5.44772 3 6 3H9C9.55228 3 10 3.44772 10 4C10 4.55228 9.55228 5 9 5H7V7H7.5C7.90446 7 8.2691 7.24364 8.42388 7.61732C8.57866 7.99099 8.4931 8.42111 8.20711 8.70711L6.70711 10.2071C6.31658 10.5976 5.68342 10.5976 5.29289 10.2071L3.79289 8.70711C3.5069 8.42111 3.42134 7.99099 3.57612 7.61732C3.7309 7.24364 4.09554 7 4.5 7H5V4Z" stroke="white"/>
<path d="M18 21C18.2652 21 18.5196 20.8946 18.7071 20.7071C18.8946 20.5196 19 20.2652 19 20V17H19.5C19.9045 17 20.2691 16.7564 20.4239 16.3827C20.5787 16.009 20.4931 15.5789 20.2071 15.2929L18.7071 13.7929C18.3166 13.4024 17.6834 13.4024 17.2929 13.7929L15.7929 15.2929C15.5069 15.5789 15.4213 16.009 15.5761 16.3827C15.7309 16.7564 16.0955 17 16.5 17H17V19H15C14.4477 19 14 19.4477 14 20C14 20.5523 14.4477 21 15 21H18Z" stroke="white"/>
</svg>

<svg width="24" height="24" fill="none" xmlns="http://www.w3.org/2000/svg" viewBox="0 0 24 24"><path fill-rule="evenodd" clip-rule="evenodd" d="M12 5a3 3 0 013-3h4a3 3 0 013 3v4a3 3 0 01-3 3h-4a3 3 0 01-3-3V5zm4 1.375a1.125 1.125 0 11-2.25 0 1.125 1.125 0 012.25 0zM19.125 7.5a1.125 1.125 0 100-2.25 1.125 1.125 0 000 2.25zm-4.773 1.097a.75.75 0 011.06-.002A2.24 2.24 0 0017 9.25c.62 0 1.18-.25 1.587-.655a.75.75 0 011.058 1.063A3.74 3.74 0 0117 10.75a3.74 3.74 0 01-2.645-1.092.75.75 0 01-.003-1.06zM2 15a3 3 0 013-3h4a3 3 0 013 3v4a3 3 0 01-3 3H5a3 3 0 01-3-3v-4zm4 1.375a1.125 1.125 0 11-2.25 0 1.125 1.125 0 012.25 0zM9.125 17.5a1.125 1.125 0 100-2.25 1.125 1.125 0 000 2.25zm-4.773 1.097a.75.75 0 011.06-.002A2.24 2.24 0 007 19.25c.62 0 1.18-.25 1.587-.655a.75.75 0 011.058 1.063A3.74 3.74 0 017 20.75a3.74 3.74 0 01-2.645-1.092.75.75 0 01-.003-1.06z" fill="currentColor"></path><path d="M5 4a1 1 0 011-1h3a1 1 0 010 2H7v2h.5a1 1 0 01.707 1.707l-1.5 1.5a1 1 0 01-1.414 0l-1.5-1.5A1 1 0 014.5 7H5V4zM18 21a1 1 0 001-1v-3h.5a1 1 0 00.707-1.707l-1.5-1.5a1 1 0 00-1.414 0l-1.5 1.5A1 1 0 0016.5 17h.5v2h-2a1 1 0 100 2h3z" fill="currentColor"></path><path clip-rule="evenodd" d="M12 5a3 3 0 013-3h4a3 3 0 013 3v4a3 3 0 01-3 3h-4a3 3 0 01-3-3V5zm4 1.375a1.125 1.125 0 11-2.25 0 1.125 1.125 0 012.25 0zM19.125 7.5a1.125 1.125 0 100-2.25 1.125 1.125 0 000 2.25zm-4.773 1.097a.75.75 0 011.06-.002A2.24 2.24 0 0017 9.25c.62 0 1.18-.25 1.587-.655a.75.75 0 011.058 1.063A3.74 3.74 0 0117 10.75a3.74 3.74 0 01-2.645-1.092.75.75 0 01-.003-1.06zM2 15a3 3 0 013-3h4a3 3 0 013 3v4a3 3 0 01-3 3H5a3 3 0 01-3-3v-4zm4 1.375a1.125 1.125 0 11-2.25 0 1.125 1.125 0 012.25 0zM9.125 17.5a1.125 1.125 0 100-2.25 1.125 1.125 0 000 2.25zm-4.773 1.097a.75.75 0 011.06-.002A2.24 2.24 0 007 19.25c.62 0 1.18-.25 1.587-.655a.75.75 0 011.058 1.063A3.74 3.74 0 017 20.75a3.74 3.74 0 01-2.645-1.092.75.75 0 01-.003-1.06z" stroke="#fff"></path><path d="M5 4a1 1 0 011-1h3a1 1 0 010 2H7v2h.5a1 1 0 01.707 1.707l-1.5 1.5a1 1 0 01-1.414 0l-1.5-1.5A1 1 0 014.5 7H5V4zM18 21a1 1 0 001-1v-3h.5a1 1 0 00.707-1.707l-1.5-1.5a1 1 0 00-1.414 0l-1.5 1.5A1 1 0 0016.5 17h.5v2h-2a1 1 0 100 2h3z" stroke="#fff"></path></svg>
